svg/white/bcc.svg

<svg xmlns="http://www.w3.org/2000/svg" width="32" height="32" viewBox="0 0 32 32">
  <path fill="#FFF" d="M16,32 C7.163444,32 0,24.836556 0,16 C0,7.163444 7.163444,0 16,0 C24.836556,0 32,7.163444 32,16 C32,24.836556 24.836556,32 16,32 Z M7.35104,19.3208 C7.35824,21.9024 8.94096,24.25104 11.3568,25.10848 C13.78672,25.97184 15.98912,25.51376 17.8872,23.74368 C18.07424,23.56928 18.17536,23.572 18.33808,23.748 C18.61696,24.0488 18.90768,24.3392 19.20528,24.6216 C19.3672,24.77536 19.42288,24.91328 19.3704,25.1552 C19.18784,25.9976 19.61184,26.8192 20.37984,27.2032 C21.08336,27.5544 21.98752,27.38352 22.5416,26.79456 C23.1078752,26.1957977 23.2142771,25.2964546 22.80336,24.58208 C22.39872,23.87984 21.55968,23.5152 20.7488,23.71984 C20.54112,23.77232 20.4104,23.73376 20.2704,23.5888 C19.9184,23.22432 19.5632,22.86304 19.1952,22.51392 C19.04224,22.36832 19.02128,22.2536 19.11616,22.05424 C20.37168,19.41648 19.77152,16.51984 17.56816,14.59824 C17.3648,14.42224 17.38816,14.3272 17.55072,14.15024 C18.8976,12.684 20.23888,11.2126933 21.57456,9.73632 C21.73552,9.5584 21.88048,9.49824 22.12928,9.54992 C23.35744,9.80528 24.56672,8.86848 24.6448,7.62352 C24.70304,6.6936 24.2352,5.90224 23.38288,5.48896 C22.6592,5.13808 21.65664,5.29936 21.0512,5.86432 C20.38672,6.48416 20.1808,7.42064 20.5328,8.28816 C20.60096,8.45568 20.644,8.56736 20.4952,8.72912 C19.0517867,10.3030933 17.6124267,11.8807467 16.17712,13.46208 C16.07408,13.57552 15.99136,13.616 15.83728,13.55008 C15.4267253,13.3735856 14.9937949,13.2545445 14.55072,13.19632 C14.31792,13.16608 14.2888,13.06096 14.29152,12.86464 C14.30064,12.18848 14.30864,11.51152 14.28848,10.83584 C14.28048,10.56448 14.35488,10.41072 14.59488,10.25872 C15.2728,9.82832 15.56432,8.99696 15.35504,8.23248 C15.14672,7.47168 14.44288,6.89872 13.67184,6.86224 C12.81184,6.8216 12.06528,7.33216 11.78384,8.15328 C11.51744,8.9304 11.8152,9.7936 12.54384,10.2688 C12.7528,10.40512 12.8304,10.5496 12.82512,10.79328 C12.80912,11.46928 12.80816,12.14608 12.82512,12.82208 C12.83152,13.07632 12.75808,13.16336 12.4984,13.21136 C9.46432,13.77984 7.34256,16.30768 7.35104,19.3208 Z"/>
</svg>

<svg xmlns="http://www.w3.org/2000/svg" width="32" height="32"><path fill="#FFF" d="M16 32C7.163 32 0 24.837 0 16S7.163 0 16 0s16 7.163 16 16-7.163 16-16 16zM7.351 19.32c.007 2.582 1.59 4.931 4.006 5.788 2.43.864 4.632.406 6.53-1.364.187-.175.288-.172.451.004.279.3.57.591.867.874.162.153.218.291.165.533-.182.843.242 1.664 1.01 2.048.703.351 1.608.18 2.162-.408a1.866 1.866 0 0 0 .261-2.213 1.852 1.852 0 0 0-2.054-.862c-.208.052-.339.014-.479-.131a34.75 34.75 0 0 0-1.075-1.075c-.153-.146-.174-.26-.079-.46 1.256-2.638.656-5.534-1.548-7.456-.203-.176-.18-.27-.017-.448a787.317 787.317 0 0 0 4.024-4.414c.16-.178.305-.238.554-.186 1.228.255 2.438-.682 2.516-1.926.058-.93-.41-1.722-1.262-2.135-.724-.35-1.726-.19-2.332.375-.664.62-.87 1.557-.518 2.424.068.168.111.28-.038.441a1249.609 1249.609 0 0 0-4.318 4.733c-.103.114-.186.154-.34.088a4.861 4.861 0 0 0-1.286-.354c-.233-.03-.262-.135-.26-.331.01-.677.018-1.353-.003-2.03-.008-.27.067-.424.307-.576.678-.43.97-1.262.76-2.027-.208-.76-.912-1.333-1.683-1.37-.86-.04-1.607.47-1.888 1.291-.267.777.031 1.64.76 2.116.209.136.286.28.281.524a41.633 41.633 0 0 0 0 2.03c.007.253-.067.34-.327.388-3.034.569-5.155 3.097-5.147 6.11z"/></svg>
